X: 09098
T: ROGER'S TUNE
C: Bob McQuillen 15 Oct 92
B: Bob's Note Book 9 #98
R: shottish, reel
Z: 2017 John Chambers <jc:trillian.mit.edu>
L: 1/8
M: C
K: D
de |\
f2df edBA | defd A2gf | edcd efga | bafd A2ag |
f2df edBA | defd A2gf | edcB Aceg | f2dc d2 :|
|: dB |\
ABdf afdB | AFAd f2fe | dBAF ABde | fafd e2dB |
ABdf afdB | ABde f2ef | gfed ceag | f2d2 d2 :|
%%begintext align
%% Note: Try this one as a Schottische - (I wouldn't
%% be surprised if somebody already wrote it
%% as a Schottische!)
%%endtext
%%begintext align
%% I'll see Roger Polansky on
%% Mother's Day Weekend, along with his friend Helen Stohoe
%% and several others in here, and I'll enjoy playing some
%% tunes with him and his banjo. It's always such a happy
%% occasion and I look forward to it each year. See you then, Roger!
%%endtext

%%sep 1 1 500

%%sep 1 1 500

